X:281
T: BURGUNDER HER BURGUNDER HER
N: B0333
O: Europa, Mitteleuropa, Deutschland
R: Trink - Lied
M: 2/4
L: 1/16
K: C
EF | G2C2C2C2 | c2G2G2
G2 | e2dcB2c2 | dBG2z2
EF | G2C2C2C2 | c2G2G2
G2 | e2dcB2c2 | dBG2z2
GA | B2G2G2G2 | d2G2G2
G2 | G2D2D2EF | E2DEC2
E2 | F2E2D2C2 | ^F4G2
c2 | c4E2F2 | G4C2

